Numix-GalliumOS/64/mimetypes/application-vnd.oasis.opendocument.presentation.svg

<svg xmlns="http://www.w3.org/2000/svg" xmlns:xlink="http://www.w3.org/1999/xlink" width="64px" height="64px" viewBox="0 0 64 64" version="1.1">
<g id="surface1">
<path style=" stroke:none;fill-rule:nonzero;fill:rgb(81.960784%,27.45098%,14.901961%);fill-opacity:1;" d="M 10.671875 0 C 9.296875 0 8 1.355469 8 2.789062 L 8 61.210938 C 8 62.566406 9.375 64 10.671875 64 L 53.328125 64 C 54.625 64 56 62.566406 56 61.210938 L 56 18 L 38 0 Z M 10.671875 0 "/>
<path style=" stroke:none;fill-rule:nonzero;fill:rgb(0%,0%,0%);fill-opacity:0.196078;" d="M 42 18 L 56 32 L 56 18 Z M 42 18 "/>
<path style=" stroke:none;fill-rule:nonzero;fill:rgb(100%,100%,100%);fill-opacity:0.392157;" d="M 38 0 L 55.984375 18 L 40.757812 18 C 39.410156 18 38 16.574219 38 15.226562 Z M 38 0 "/>
<path style=" stroke:none;fill-rule:nonzero;fill:rgb(0%,0%,0%);fill-opacity:0.196078;" d="M 8 48 L 8 61.335938 C 8 62.632812 9.375 64 10.664062 64 L 53.335938 64 C 54.625 64 56 62.632812 56 61.335938 L 56 48 Z M 8 48 "/>
<path style=" stroke:none;fill-rule:nonzero;fill:rgb(100%,100%,100%);fill-opacity:1;" d="M 16 24 L 26 24 L 26 30 L 16 30 Z M 16 24 "/>
<path style=" stroke:none;fill-rule:nonzero;fill:rgb(100%,100%,100%);fill-opacity:1;" d="M 20.304688 56.371094 C 20.304688 56.898438 20.324219 57.394531 20.363281 57.855469 C 20.414062 58.308594 20.503906 58.703125 20.636719 59.042969 C 20.777344 59.378906 20.972656 59.644531 21.222656 59.839844 C 21.46875 60.039062 21.796875 60.136719 22.210938 60.136719 C 22.613281 60.136719 22.933594 60.039062 23.183594 59.839844 C 23.445312 59.644531 23.636719 59.378906 23.765625 59.042969 C 23.90625 58.6875 24 58.292969 24.039062 57.839844 C 24.089844 57.386719 24.121094 56.898438 24.121094 56.371094 C 24.121094 55.851562 24.089844 55.367188 24.039062 54.914062 C 24 54.445312 23.90625 54.046875 23.765625 53.710938 C 23.636719 53.371094 23.445312 53.109375 23.207031 52.910156 C 22.960938 52.714844 22.621094 52.613281 22.210938 52.613281 C 21.796875 52.613281 21.46875 52.714844 21.222656 52.910156 C 20.972656 53.109375 20.777344 53.378906 20.636719 53.726562 C 20.503906 54.066406 20.414062 54.460938 20.363281 54.914062 C 20.324219 55.367188 20.304688 55.851562 20.304688 56.371094 M 17.867188 56.371094 C 17.867188 54.519531 18.253906 53.117188 19.019531 52.175781 C 19.789062 51.222656 20.851562 50.75 22.210938 50.75 C 23.628906 50.75 24.699219 51.222656 25.441406 52.175781 C 26.183594 53.117188 26.550781 54.519531 26.550781 56.371094 C 26.550781 58.234375 26.171875 59.636719 25.421875 60.589844 C 24.671875 61.53125 23.601562 62 22.226562 62 C 20.816406 62 19.730469 61.53125 18.980469 60.589844 C 18.238281 59.636719 17.867188 58.234375 17.867188 56.371094 "/>
<path style=" stroke:none;fill-rule:nonzero;fill:rgb(100%,100%,100%);fill-opacity:1;" d="M 30.523438 60.03125 C 30.589844 60.046875 30.65625 60.046875 30.738281 60.046875 C 30.8125 60.046875 30.886719 60.046875 30.953125 60.046875 C 31.496094 60.046875 31.949219 59.957031 32.3125 59.773438 C 32.691406 59.585938 32.988281 59.328125 33.210938 59.007812 C 33.441406 58.679688 33.605469 58.300781 33.695312 57.855469 C 33.796875 57.402344 33.855469 56.90625 33.855469 56.371094 C 33.855469 55.910156 33.8125 55.457031 33.738281 55.019531 C 33.65625 54.574219 33.523438 54.1875 33.328125 53.851562 C 33.128906 53.511719 32.863281 53.25 32.527344 53.050781 C 32.1875 52.835938 31.753906 52.738281 31.226562 52.738281 C 31.117188 52.738281 31.003906 52.738281 30.871094 52.753906 C 30.746094 52.753906 30.625 52.761719 30.523438 52.789062 L 30.523438 60.03125 M 36.285156 56.371094 C 36.285156 57.378906 36.144531 58.226562 35.855469 58.933594 C 35.585938 59.636719 35.195312 60.203125 34.710938 60.640625 C 34.214844 61.085938 33.621094 61.40625 32.9375 61.621094 C 32.261719 61.808594 31.511719 61.910156 30.699219 61.910156 C 30.269531 61.910156 29.847656 61.894531 29.429688 61.84375 C 29.03125 61.808594 28.597656 61.746094 28.125 61.652344 L 28.125 51.132812 C 28.671875 51.03125 29.191406 50.957031 29.667969 50.925781 C 30.144531 50.890625 30.589844 50.867188 31.011719 50.867188 C 31.800781 50.867188 32.519531 50.972656 33.167969 51.1875 C 33.828125 51.394531 34.390625 51.722656 34.84375 52.175781 C 35.296875 52.621094 35.648438 53.191406 35.898438 53.882812 C 36.152344 54.566406 36.285156 55.398438 36.285156 56.371094 "/>
<path style=" stroke:none;fill-rule:nonzero;fill:rgb(100%,100%,100%);fill-opacity:1;" d="M 41.171875 50.867188 C 42.703125 50.867188 43.890625 51.15625 44.730469 51.722656 C 45.570312 52.285156 46 53.199219 46 54.476562 C 46 55.761719 45.570312 56.703125 44.714844 57.277344 C 43.867188 57.847656 42.671875 58.136719 41.113281 58.136719 L 40.257812 58.136719 L 40.257812 61.777344 L 37.859375 61.777344 L 37.859375 51.132812 C 38.097656 51.089844 38.351562 51.046875 38.640625 51.007812 C 38.9375 50.972656 39.234375 50.949219 39.53125 50.941406 C 39.835938 50.917969 40.125 50.898438 40.414062 50.890625 C 40.691406 50.875 40.949219 50.867188 41.171875 50.867188 M 41.441406 52.738281 C 41.304688 52.738281 41.097656 52.738281 40.839844 52.753906 C 40.59375 52.753906 40.398438 52.761719 40.257812 52.789062 L 40.257812 56.273438 L 41.230469 56.273438 C 41.996094 56.273438 42.570312 56.132812 42.960938 55.867188 C 43.347656 55.589844 43.542969 55.121094 43.542969 54.460938 C 43.542969 53.832031 43.347656 53.390625 42.960938 53.132812 C 42.589844 52.871094 42.078125 52.738281 41.441406 52.738281 "/>
<path style=" stroke:none;fill-rule:nonzero;fill:rgb(100%,100%,100%);fill-opacity:1;" d="M 16 34 L 26 34 L 26 40 L 16 40 Z M 16 34 "/>
<path style=" stroke:none;fill-rule:nonzero;fill:rgb(100%,100%,100%);fill-opacity:1;" d="M 40 21.984375 L 40 30 L 48 30 C 48 25.570312 44.417969 21.984375 40 21.984375 Z M 40 21.984375 "/>
<path style=" stroke:none;fill-rule:nonzero;fill:rgb(100%,100%,100%);fill-opacity:1;" d="M 38.003906 24 C 33.585938 24 30 27.578125 30 32 C 30 36.421875 33.585938 40 38.003906 40 C 42.421875 40 46 36.421875 46 32 L 38.003906 32 Z M 38.003906 24 "/>
</g>
</svg>

<svg xmlns="http://www.w3.org/2000/svg" viewBox="0 0 64 64">
 <g>
  <path d="m 10.672 0 c -1.375 0 -2.672 1.355 -2.672 2.789 l 0 58.42 c 0 1.355 1.375 2.789 2.672 2.789 l 42.656 0 c 1.297 0 2.672 -1.434 2.672 -2.789 l 0 -43.21 l -18 -18 m -27.328 0" style="fill:#d04526;fill-opacity:1;stroke:none;fill-rule:nonzero"/>
  <path d="m 42 18 l 14 14 l 0 -14 m -14 0" style="fill:#000;fill-opacity:0.196;stroke:none;fill-rule:nonzero"/>
  <path d="m 38 0 l 17.984 18 l -15.227 0 c -1.348 0 -2.758 -1.426 -2.758 -2.773 m 0 -15.227" style="fill:#fff;fill-opacity:0.392;stroke:none;fill-rule:nonzero"/>
  <path d="m 8 48 l 0 13.336 c 0 1.297 1.375 2.664 2.664 2.664 l 42.672 0 c 1.289 0 2.664 -1.367 2.664 -2.664 l 0 -13.336 m -48 0" style="fill:#000;fill-opacity:0.196;stroke:none;fill-rule:nonzero"/>
  <path d="m 16 24 l 10 0 l 0 6 l -10 0 m 0 -6" style="fill:#fff;fill-opacity:1;stroke:none;fill-rule:nonzero"/>
  <path d="m 20.305 56.37 c 0 0.527 0.02 1.023 0.059 1.484 c 0.051 0.453 0.141 0.848 0.273 1.188 c 0.141 0.336 0.336 0.602 0.586 0.797 c 0.246 0.199 0.574 0.297 0.988 0.297 c 0.402 0 0.723 -0.098 0.973 -0.297 c 0.262 -0.195 0.453 -0.461 0.582 -0.797 c 0.141 -0.355 0.234 -0.75 0.273 -1.203 c 0.051 -0.453 0.082 -0.941 0.082 -1.469 c 0 -0.52 -0.031 -1 -0.082 -1.457 c -0.039 -0.469 -0.133 -0.867 -0.273 -1.203 c -0.129 -0.34 -0.32 -0.602 -0.559 -0.801 c -0.246 -0.195 -0.586 -0.297 -0.996 -0.297 c -0.414 0 -0.742 0.102 -0.988 0.297 c -0.25 0.199 -0.445 0.469 -0.586 0.816 c -0.133 0.34 -0.223 0.734 -0.273 1.188 c -0.039 0.453 -0.059 0.938 -0.059 1.457 m -2.438 0 c 0 -1.852 0.387 -3.254 1.152 -4.195 c 0.77 -0.953 1.832 -1.426 3.191 -1.426 c 1.418 0 2.488 0.473 3.23 1.426 c 0.742 0.941 1.109 2.344 1.109 4.195 c 0 1.863 -0.379 3.266 -1.129 4.219 c -0.75 0.941 -1.82 1.41 -3.195 1.41 c -1.41 0 -2.496 -0.469 -3.246 -1.41 c -0.742 -0.953 -1.113 -2.355 -1.113 -4.219" style="fill:#fff;fill-opacity:1;stroke:none;fill-rule:nonzero"/>
  <path d="m 30.523 60.03 c 0.066 0.016 0.133 0.016 0.215 0.016 c 0.074 0 0.148 0 0.215 0 c 0.543 0 0.996 -0.09 1.359 -0.273 c 0.379 -0.188 0.676 -0.445 0.898 -0.766 c 0.23 -0.328 0.395 -0.707 0.484 -1.152 c 0.102 -0.453 0.16 -0.949 0.16 -1.484 c 0 -0.461 -0.043 -0.914 -0.117 -1.352 c -0.082 -0.445 -0.215 -0.832 -0.41 -1.168 c -0.199 -0.34 -0.465 -0.602 -0.801 -0.801 c -0.34 -0.215 -0.773 -0.313 -1.301 -0.313 c -0.109 0 -0.223 0 -0.355 0.016 c -0.125 0 -0.246 0.008 -0.348 0.035 l 0 7.242 m 5.762 -3.66 c 0 1.01 -0.141 1.855 -0.43 2.563 c -0.27 0.703 -0.66 1.27 -1.145 1.707 c -0.496 0.445 -1.09 0.766 -1.773 0.98 c -0.676 0.188 -1.426 0.289 -2.238 0.289 c -0.43 0 -0.852 -0.016 -1.27 -0.066 c -0.398 -0.035 -0.832 -0.098 -1.305 -0.191 l 0 -10.52 c 0.547 -0.102 1.066 -0.176 1.543 -0.207 c 0.477 -0.035 0.922 -0.059 1.344 -0.059 c 0.789 0 1.508 0.105 2.156 0.32 c 0.66 0.207 1.223 0.535 1.676 0.988 c 0.453 0.445 0.805 1.016 1.055 1.707 c 0.254 0.684 0.387 1.516 0.387 2.488" style="fill:#fff;fill-opacity:1;stroke:none;fill-rule:nonzero"/>
  <path d="m 41.17 50.867 c 1.531 0 2.719 0.289 3.559 0.855 c 0.84 0.563 1.27 1.477 1.27 2.754 c 0 1.285 -0.43 2.227 -1.285 2.801 c -0.848 0.57 -2.043 0.859 -3.602 0.859 l -0.855 0 l 0 3.641 l -2.398 0 l 0 -10.645 c 0.238 -0.043 0.492 -0.086 0.781 -0.125 c 0.297 -0.035 0.594 -0.059 0.891 -0.066 c 0.305 -0.023 0.594 -0.043 0.883 -0.051 c 0.277 -0.016 0.535 -0.023 0.758 -0.023 m 0.27 1.871 c -0.137 0 -0.344 0 -0.602 0.016 c -0.246 0 -0.441 0.008 -0.582 0.035 l 0 3.484 l 0.973 0 c 0.766 0 1.34 -0.141 1.73 -0.406 c 0.387 -0.277 0.582 -0.746 0.582 -1.406 c 0 -0.629 -0.195 -1.07 -0.582 -1.328 c -0.371 -0.262 -0.883 -0.395 -1.52 -0.395" style="fill:#fff;fill-opacity:1;stroke:none;fill-rule:nonzero"/>
  <path d="m 16 34 l 10 0 l 0 6 l -10 0 m 0 -6" style="fill:#fff;fill-opacity:1;stroke:none;fill-rule:nonzero"/>
  <path d="m 40 21.984 l 0 8.02 l 8 0 c 0 -4.43 -3.582 -8.02 -8 -8.02 m 0 0" style="fill:#fff;fill-opacity:1;stroke:none;fill-rule:nonzero"/>
  <path d="m 38 24 c -4.418 0 -8 3.578 -8 8 c 0 4.422 3.586 8 8 8 c 4.418 0 7.996 -3.578 7.996 -8 l -7.996 0 m 0 -8" style="fill:#fff;fill-opacity:1;stroke:none;fill-rule:nonzero"/>
 </g>
</svg>
